X:1
T: Long John's Wedding
C:
R:Jig
Q:180
K:A
M:6/8
L:1/16
e2|c4A2 A2B2A2|a2g2f2 e4d2|c4A2 A2B2c2|d4c2 B2c2d2|c4A2 A2B2A2|a2g2f2 e4d2|c4A2 B2G2B2|A6A4e2|
c4A2 A2B2A2|a2g2f2 e4d2|c4A2 A2B2c2|d4c2 B2c2d2|c4A2 A2B2A2|a2g2f2 e4d2|c4A2 B2G2B2|A6A4e2|
A4B2 c4d2|e2f2e2 e6|d4B2 B2c2d2|e4d2 c2B2A2|f4g2 a2g2f2|e4d2 c4a2|c4A2 B2G2B2|A6A4e2|
A4B2 c4d2|e2f2e2 e6|d4B2 B2c2d2|e4d2 c2B2A2|f4g2 a2g2f2|e4d2 c4a2|c4A2 B2G2B2|A6A4||
